img/step-illlustration-man.svg

<svg width="300" height="278" fill="none" xmlns="http://www.w3.org/2000/svg"><g clip-path="url(#clip0)"><path d="M18.1829 22.1398A18.2036 18.2036 0 000 40.3227V249.8a18.2016 18.2016 0 005.3318 12.851 18.2008 18.2008 0 0012.8511 5.332H171.85a18.2046 18.2046 0 0012.851-5.332 18.2028 18.2028 0 005.332-12.851V40.3227a18.2052 18.2052 0 00-5.332-12.8512 18.2034 18.2034 0 00-12.851-5.3317H18.1829z" fill="#3F3D56"/><path d="M180.577 35.0546H9.4555V255.068H180.577V35.0546z" fill="#fff"/><path d="M158.207 74.491H31.8259v8.3024H158.207V74.491zM158.207 96.6307H31.8259v8.3023H158.207v-8.3023zM158.207 118.77H31.8259v8.303H158.207v-8.303zM158.207 140.91H31.8259v8.303H158.207v-8.303zM158.207 163.05H31.8259v8.302H158.207v-8.302zM158.207 185.19H31.8259v8.302H158.207v-8.302zM158.207 207.329H31.8259v8.303H158.207v-8.303z" fill="#00BAFC"/><path d="M159.986 21.1041L34.6673 44.0377 64.1534 205.162l125.3186-22.934-29.486-161.1239z" fill="#E6E6E6"/><path d="M148.889 52.9828L56.3352 69.9203l1.1127 6.0801 92.5531-16.9375-1.112-6.0801zM151.856 69.1965L59.3023 86.134l1.1127 6.0802 92.553-16.9375-1.112-6.0802zM154.823 85.4103L62.2695 102.348l1.1127 6.08 92.5528-16.9376-1.112-6.0801zM157.79 101.624l-92.5534 16.938 1.1127 6.08 92.5537-16.938-1.113-6.08zM160.756 117.838l-92.5533 16.937 1.1127 6.08 92.5526-16.937-1.112-6.08zM163.724 134.051l-92.553 16.938 1.1126 6.08 92.5534-16.937-1.113-6.081zM166.691 150.265l-92.5529 16.938 1.1127 6.08 92.5532-16.938-1.113-6.08z" fill="#00BAFC"/><path d="M248.688 197.361l-35.459 6.489 8.343 45.591 35.459-6.489-8.343-45.591z" fill="#E6E6E6"/><path d="M245.548 206.381l-26.188 4.793.315 1.72 26.188-4.792-.315-1.721zM246.388 210.969l-26.189 4.793.315 1.72 26.189-4.792-.315-1.721zM247.227 215.557l-26.188 4.792.315 1.721 26.188-4.793-.315-1.72zM248.067 220.145l-26.188 4.792.314 1.721 26.189-4.793-.315-1.72zM248.906 224.732l-26.188 4.793.315 1.72 26.188-4.792-.315-1.721zM249.746 229.32l-26.188 4.793.315 1.72 26.188-4.792-.315-1.721zM250.586 233.908l-26.189 4.792.315 1.721 26.188-4.793-.314-1.72z" fill="#fff"/><path d="M126.701 11.5311h-15.08v-3.087a8.442 8.442 0 00-2.473-5.9709A8.4443 8.4443 0 00103.177 0H86.8556a8.4439 8.4439 0 00-8.444 8.444v3.0871H63.3321a8.4433 8.4433 0 00-5.9708 2.4732 8.4431 8.4431 0 00-2.4732 5.9708V43.357h80.2569V19.9751a8.4416 8.4416 0 00-2.474-5.9708 8.4453 8.4453 0 00-2.739-1.8304 8.4465 8.4465 0 00-3.231-.6428zM89.6033 239.069c2.4932-1.706 5.0557-3.481 8.0164-4.256 2.7013-.708 5.8033-.521 7.9393 1.457 1.725 1.596 2.453 4.05 1.175 6.15-.274.479-.646.894-1.093 1.219a3.911 3.911 0 01-1.496.665c-.522.068-1.053.004-1.543-.187-.49-.192-.924-.505-1.261-.909-.67-.74-1.071-1.834-.715-2.81.375-1.026 1.376-1.653 2.359-2.003 1.145-.363 2.324-.606 3.518-.727l4.893-.67 20.025-2.741 22.302-3.053a.6974.6974 0 00.483-.851.7113.7113 0 00-.329-.412.7093.7093 0 00-.522-.072l-44.375 6.075c-1.605.22-3.233.377-4.821.7a8.1048 8.1048 0 00-3.462 1.438c-2.1256 1.683-1.9737 4.66-.018 6.42 1.981 1.783 4.852 1.476 6.59-.493a5.977 5.977 0 001.482-3.582 5.9773 5.9773 0 00-1.029-3.739c-1.897-2.86-5.354-3.959-8.6567-3.553-3.8197.469-7.058 2.616-10.1604 4.739-.7304.5-.0391 1.7.6984 1.195z" fill="#3F3D56"/><path d="M245.308 187.788l.462 4.613s-2.768 10.147 3.228 10.147 1.384-10.147 1.384-10.147l.461-3.69-5.535-.923zM287.203 172.421l-2.116 4.125s-7.833 7.02-2.797 10.274c5.036 3.255 6.67-7.771 6.67-7.771l2.391-2.848-4.148-3.78z" fill="#A0616A"/><path d="M252.688 191.939l6.458 43.819 3.228 31.364s2.768 6.919 11.993.923l-1.384-17.989-.923-16.143s-.922-15.683-1.844-18.45c-.923-2.768.461-11.992.461-11.992l3.69-15.221-21.679 3.689z" fill="#2F2E41"/><path d="M263.297 266.2l-3.69 4.151s-5.535-1.845-6.919 1.845c-1.383 3.69 10.609 4.612 10.609 4.612s12.453.923 12.453 0c0-.922-.333-7.977-2.011-8.37-1.678-.393-10.442-2.238-10.442-2.238zM270.215 189.633l6.458 46.125 3.229 31.364s2.767 6.919 11.992.923l-1.384-17.989-.922-16.143s-.923-15.683-1.845-18.45c-.923-2.768.461-11.992.461-11.992l-.922-17.066-17.067 3.228z" fill="#2F2E41"/><path d="M280.824 266.2l-3.69 4.151s-5.535-1.845-6.918 1.845c-1.384 3.69 10.608 4.612 10.608 4.612s12.454.923 12.454 0c0-.922-.334-7.977-2.012-8.37-1.678-.393-10.442-2.238-10.442-2.238z" fill="#2F2E41"/><path d="M256.378 116.757c5.35 0 9.686-4.337 9.686-9.686 0-5.35-4.336-9.6866-9.686-9.6866-5.349 0-9.686 4.3366-9.686 9.6866 0 5.349 4.337 9.686 9.686 9.686z" fill="#A0616A"/><path d="M263.527 111.452l4.152 6.919-10.609 4.612-1.384-8.302 7.841-3.229z" fill="#A0616A"/><path d="M268.832 117.679s-9.686-.922-13.376 5.074l-9.104 6.919a5.2448 5.2448 0 00-1.669 2.16c-.356.855-.48 1.789-.358 2.707l7.902 59.707 11.531-.462 18.911-3.69 5.535-1.383-2.767-24.446s-3.229-9.686.461-16.144l-1.845-22.601-12.915-5.073-2.306-2.768z" fill="#575A89"/><path d="M247.153 131.517l-.692-1.154s-.922 0-.922 1.845-1.614 41.743-1.614 41.743l-.462 15.221 8.764.923 3.229-28.598-1.384-18.911-6.919-11.069zM277.595 124.598l6.458.922a42.8564 42.8564 0 016.457 8.764c2.768 5.074 11.07 14.76 9.225 22.14-1.845 7.38-7.38 20.756-7.38 20.756l-8.763-3.69s6.918-16.144 6.457-17.527c-.461-1.384-5.996-9.687-5.996-9.687l-6.458-21.678z" fill="#575A89"/><path d="M249.69 101.766s-7.841-.461-2.767-5.5347c0 0 4.151-1.845 5.996-.9225 0 0 2.767-1.845 2.767-.9225 0 0 9.686-2.7674 11.07 6.9187 1.384 9.686-.922 14.299-.922 14.299l-6.458-.462s1.384-7.841-3.69-6.918c0 0-4.151 1.383-4.612 0-.461-1.384-1.384-6.458-1.384-6.458z" fill="#2F2E41"/><path opacity=".2" d="M253.38 189.403l4.151-27.675-2.767-17.066.922 18.563-2.767 26.178h.461z" fill="#000"/></g><defs><clipPath id="clip0"><path fill="#fff" d="M0 0h300v278H0z"/></clipPath></defs></svg>

<svg width="300" height="278" viewBox="0 0 300 278" fill="none" xmlns="http://www.w3.org/2000/svg">
<g clip-path="url(#clip0)">
<path d="M18.1829 22.1398C13.3622 22.1453 8.74047 24.0627 5.3317 27.4715C1.92293 30.8802 0.00548312 35.5019 0 40.3227V249.8C0.00553034 254.621 1.92301 259.243 5.33177 262.651C8.74053 266.06 13.3622 267.978 18.1829 267.983H171.85C176.671 267.977 181.292 266.06 184.701 262.651C188.11 259.243 190.027 254.621 190.033 249.8V40.3227C190.027 35.502 188.11 30.8803 184.701 27.4715C181.292 24.0628 176.671 22.1453 171.85 22.1398H18.1829Z" fill="#3F3D56"/>
<path d="M180.577 35.0546H9.45551V255.068H180.577V35.0546Z" fill="white"/>
<path d="M158.207 74.491H31.8259V82.7934H158.207V74.491Z" fill="#00BAFC"/>
<path d="M158.207 96.6307H31.8259V104.933H158.207V96.6307Z" fill="#00BAFC"/>
<path d="M158.207 118.77H31.8259V127.073H158.207V118.77Z" fill="#00BAFC"/>
<path d="M158.207 140.91H31.8259V149.213H158.207V140.91Z" fill="#00BAFC"/>
<path d="M158.207 163.05H31.8259V171.352H158.207V163.05Z" fill="#00BAFC"/>
<path d="M158.207 185.19H31.8259V193.492H158.207V185.19Z" fill="#00BAFC"/>
<path d="M158.207 207.329H31.8259V215.632H158.207V207.329Z" fill="#00BAFC"/>
<path d="M159.986 21.1041L34.6673 44.0377L64.1534 205.162L189.472 182.228L159.986 21.1041Z" fill="#E6E6E6"/>
<path d="M148.889 52.9828L56.3352 69.9203L57.4479 76.0004L150.001 59.0629L148.889 52.9828Z" fill="#00BAFC"/>
<path d="M151.856 69.1965L59.3023 86.134L60.415 92.2142L152.968 75.2767L151.856 69.1965Z" fill="#00BAFC"/>
<path d="M154.823 85.4103L62.2695 102.348L63.3822 108.428L155.935 91.4904L154.823 85.4103Z" fill="#00BAFC"/>
<path d="M157.79 101.624L65.2366 118.562L66.3493 124.642L158.903 107.704L157.79 101.624Z" fill="#00BAFC"/>
<path d="M160.756 117.838L68.2027 134.775L69.3154 140.855L161.868 123.918L160.756 117.838Z" fill="#00BAFC"/>
<path d="M163.724 134.051L71.171 150.989L72.2836 157.069L164.837 140.132L163.724 134.051Z" fill="#00BAFC"/>
<path d="M166.691 150.265L74.1381 167.203L75.2508 173.283L167.804 156.345L166.691 150.265Z" fill="#00BAFC"/>
<path d="M248.688 197.361L213.229 203.85L221.572 249.441L257.031 242.952L248.688 197.361Z" fill="#E6E6E6"/>
<path d="M245.548 206.381L219.36 211.174L219.675 212.894L245.863 208.102L245.548 206.381Z" fill="white"/>
<path d="M246.388 210.969L220.199 215.762L220.514 217.482L246.703 212.69L246.388 210.969Z" fill="white"/>
<path d="M247.227 215.557L221.039 220.349L221.354 222.07L247.542 217.277L247.227 215.557Z" fill="white"/>
<path d="M248.067 220.145L221.879 224.937L222.193 226.658L248.382 221.865L248.067 220.145Z" fill="white"/>
<path d="M248.906 224.732L222.718 229.525L223.033 231.245L249.221 226.453L248.906 224.732Z" fill="white"/>
<path d="M249.746 229.32L223.558 234.113L223.873 235.833L250.061 231.041L249.746 229.32Z" fill="white"/>
<path d="M250.586 233.908L224.397 238.7L224.712 240.421L250.9 235.628L250.586 233.908Z" fill="white"/>
<path d="M126.701 11.5311H111.621V8.44404C111.621 6.20454 110.732 4.05677 109.148 2.4732C107.564 0.889637 105.417 0 103.177 0H86.8556C84.6161 2.01297e-06 82.4683 0.88964 80.8848 2.4732C79.3012 4.05677 78.4116 6.20454 78.4116 8.44404V11.5311H63.3321C62.2232 11.5311 61.1252 11.7495 60.1007 12.1739C59.0762 12.5982 58.1454 13.2202 57.3613 14.0043C56.5772 14.7884 55.9552 15.7193 55.5309 16.7438C55.1065 17.7682 54.8881 18.8663 54.8881 19.9751V43.357H135.145V19.9751C135.145 18.8663 134.926 17.7682 134.502 16.7438C134.077 15.7193 133.456 14.7884 132.671 14.0043C131.887 13.2202 130.956 12.5982 129.932 12.1739C128.907 11.7495 127.809 11.5311 126.701 11.5311Z" fill="#3F3D56"/>
<path d="M89.6033 239.069C92.0965 237.363 94.659 235.588 97.6197 234.813C100.321 234.105 103.423 234.292 105.559 236.27C107.284 237.866 108.012 240.32 106.734 242.42C106.46 242.899 106.088 243.314 105.641 243.639C105.195 243.964 104.685 244.19 104.145 244.304C103.623 244.372 103.092 244.308 102.602 244.117C102.112 243.925 101.678 243.612 101.341 243.208C100.671 242.468 100.27 241.374 100.626 240.398C101.001 239.372 102.002 238.745 102.985 238.395C104.13 238.032 105.309 237.789 106.503 237.668L111.396 236.998L131.421 234.257L153.723 231.204C153.899 231.154 154.048 231.037 154.139 230.877C154.229 230.718 154.253 230.53 154.206 230.353C154.153 230.178 154.035 230.031 153.877 229.941C153.719 229.851 153.532 229.825 153.355 229.869L108.98 235.944C107.375 236.164 105.747 236.321 104.159 236.644C102.908 236.846 101.723 237.339 100.697 238.082C98.5714 239.765 98.7233 242.742 100.679 244.502C102.66 246.285 105.531 245.978 107.269 244.009C108.147 243.013 108.669 241.752 108.751 240.427C108.833 239.101 108.471 237.785 107.722 236.688C105.825 233.828 102.368 232.729 99.0653 233.135C95.2456 233.604 92.0073 235.751 88.9049 237.874C88.1745 238.374 88.8658 239.574 89.6033 239.069Z" fill="#3F3D56"/>
<path d="M245.308 187.788L245.77 192.401C245.77 192.401 243.002 202.548 248.998 202.548C254.994 202.548 250.382 192.401 250.382 192.401L250.843 188.711L245.308 187.788Z" fill="#A0616A"/>
<path d="M287.203 172.421L285.087 176.546C285.087 176.546 277.254 183.566 282.29 186.82C287.326 190.075 288.96 179.049 288.96 179.049L291.351 176.201L287.203 172.421Z" fill="#A0616A"/>
<path d="M252.688 191.939L259.146 235.758L262.374 267.122C262.374 267.122 265.142 274.041 274.367 268.045L272.983 250.056L272.06 233.913C272.06 233.913 271.138 218.23 270.216 215.463C269.293 212.695 270.677 203.471 270.677 203.471L274.367 188.25L252.688 191.939Z" fill="#2F2E41"/>
<path d="M263.297 266.2L259.607 270.351C259.607 270.351 254.072 268.506 252.688 272.196C251.305 275.886 263.297 276.808 263.297 276.808C263.297 276.808 275.75 277.731 275.75 276.808C275.75 275.886 275.417 268.831 273.739 268.438C272.061 268.045 263.297 266.2 263.297 266.2Z" fill="#2F2E41"/>
<path d="M270.215 189.633L276.673 235.758L279.902 267.122C279.902 267.122 282.669 274.041 291.894 268.045L290.51 250.056L289.588 233.913C289.588 233.913 288.665 218.23 287.743 215.463C286.82 212.695 288.204 203.471 288.204 203.471L287.282 186.405L270.215 189.633Z" fill="#2F2E41"/>
<path d="M280.824 266.2L277.134 270.351C277.134 270.351 271.599 268.506 270.216 272.196C268.832 275.886 280.824 276.808 280.824 276.808C280.824 276.808 293.278 277.731 293.278 276.808C293.278 275.886 292.944 268.831 291.266 268.438C289.588 268.045 280.824 266.2 280.824 266.2Z" fill="#2F2E41"/>
<path d="M256.378 116.757C261.728 116.757 266.064 112.42 266.064 107.071C266.064 101.721 261.728 97.3844 256.378 97.3844C251.029 97.3844 246.692 101.721 246.692 107.071C246.692 112.42 251.029 116.757 256.378 116.757Z" fill="#A0616A"/>
<path d="M263.527 111.452L267.679 118.371L257.07 122.983L255.686 114.681L263.527 111.452Z" fill="#A0616A"/>
<path d="M268.832 117.679C268.832 117.679 259.146 116.757 255.456 122.753L246.352 129.672C245.615 130.232 245.039 130.977 244.683 131.832C244.327 132.687 244.203 133.621 244.325 134.539L252.227 194.246L263.758 193.784L282.669 190.094L288.204 188.711L285.437 164.265C285.437 164.265 282.208 154.579 285.898 148.121L284.053 125.52L271.138 120.447L268.832 117.679Z" fill="#575A89"/>
<path d="M247.153 131.517L246.461 130.363C246.461 130.363 245.539 130.363 245.539 132.208C245.539 134.053 243.925 173.951 243.925 173.951L243.463 189.172L252.227 190.095L255.456 161.497L254.072 142.586L247.153 131.517Z" fill="#575A89"/>
<path d="M277.595 124.598L284.053 125.52C286.569 128.155 288.739 131.1 290.51 134.284C293.278 139.358 301.58 149.044 299.735 156.424C297.89 163.804 292.355 177.18 292.355 177.18L283.592 173.49C283.592 173.49 290.51 157.346 290.049 155.963C289.588 154.579 284.053 146.276 284.053 146.276L277.595 124.598Z" fill="#575A89"/>
<path d="M249.69 101.766C249.69 101.766 241.849 101.305 246.923 96.2313C246.923 96.2313 251.074 94.3863 252.919 95.3088C252.919 95.3088 255.686 93.4638 255.686 94.3863C255.686 94.3863 265.372 91.6189 266.756 101.305C268.14 110.991 265.834 115.604 265.834 115.604L259.376 115.142C259.376 115.142 260.76 107.301 255.686 108.224C255.686 108.224 251.535 109.607 251.074 108.224C250.613 106.84 249.69 101.766 249.69 101.766Z" fill="#2F2E41"/>
<path opacity="0.2" d="M253.38 189.403L257.531 161.728L254.764 144.662L255.686 163.225L252.919 189.403H253.38Z" fill="black"/>
</g>
<defs>
<clipPath id="clip0">
<rect width="300" height="278" fill="white"/>
</clipPath>
</defs>
</svg>
